X:5676
T:Gan ainm
R:Reel
S:Kevin Burke/The Murphys
H:
N:
D:Up Close
Z:Adrian Scahill
M:2/2
L:1/8
K:D
D3F EDB,A,|D3E FAA2|Beed e2de|f2ed BAFE|\
D3F EDB,D|A,B,DE FAA2|Beed e2dB|AFEF D4:||\
ABde f3g|afdf edBd|ABde f3g|afdf e2dB|\
ABde f3g|afdf edBA|d3B ABdB|AFEF D4:||
